icons/tokens/0x5228a22e72ccC52d415EcFd199F99D0665E7733b/logo.svg

<svg width="32" height="32" viewBox="0 0 32 32" fill="none" xmlns="http://www.w3.org/2000/svg">
<path fill-rule="evenodd" clip-rule="evenodd" d="M32 16C32 7.17152 24.8285 0 16 0C7.17152 0 0 7.17152 0 16C0 24.8285 7.17152 32 16 32C24.8285 32 32 24.8285 32 16Z" fill="#F7F6E2"/>
<path fill-rule="evenodd" clip-rule="evenodd" d="M24.7321 16C24.7321 11.1818 20.8182 7.26784 16 7.26784C11.1817 7.26784 7.26782 11.1818 7.26782 16C7.26782 20.8182 11.1817 24.7322 16 24.7322C20.8182 24.7322 24.7321 20.8182 24.7321 16Z" fill="#F7931A"/>
<path fill-rule="evenodd" clip-rule="evenodd" d="M19.8502 14.7562C20.0237 13.5936 19.1395 12.9696 17.9299 12.5514L18.3222 10.9779L17.3642 10.7392L16.9818 12.2717C16.7302 12.209 16.4717 12.1494 16.2144 12.0912L16.5981 10.5491L15.6416 10.3098L15.2477 11.8838L15.0805 11.8449L15.0805 11.8449C14.9302 11.8099 14.7819 11.7754 14.6365 11.7398L14.6378 11.7341L13.3158 11.4045L13.0614 12.4282C13.097 12.4362 13.7722 12.5914 13.7565 12.6013C14.1446 12.6982 14.2157 12.9555 14.2042 13.1584L13.128 17.471C13.0813 17.5891 12.9603 17.7654 12.689 17.6986C12.6983 17.7115 12.1356 17.5629 12.0139 17.5308L12.0138 17.5308L11.9923 17.5251L11.5165 18.6211L12.2293 18.799L12.7642 18.9325C12.8998 18.9664 13.0339 19.0014 13.1664 19.0361C13.2605 19.0607 13.3538 19.0851 13.4464 19.1088L13.0502 20.7008L14.008 20.9395L14.4003 19.3645C14.6621 19.4355 14.9152 19.5008 15.1638 19.5619L14.7728 21.1299L15.7309 21.3686L16.1277 19.7795C17.7606 20.0893 18.9904 19.9645 19.5078 18.4861C19.9242 17.2963 19.4864 16.6099 18.6266 16.1619C19.2531 16.0186 19.7235 15.6064 19.8502 14.7562ZM17.6611 17.8253C17.389 18.9167 15.6845 18.4674 14.9014 18.261C14.8299 18.2421 14.766 18.2253 14.7117 18.2118L15.2374 16.1024C15.3032 16.1188 15.3836 16.1368 15.4747 16.1573C16.284 16.3387 17.9384 16.7096 17.6611 17.8253ZM15.6353 15.1766C16.2861 15.3506 17.7094 15.7312 17.9568 14.7392C18.2097 13.7234 16.8281 13.4173 16.153 13.2677C16.0772 13.2509 16.0102 13.236 15.9555 13.2224L15.4794 15.1357C15.5241 15.1469 15.5766 15.1609 15.6353 15.1766Z" fill="white"/>
<path fill-rule="evenodd" clip-rule="evenodd" d="M9.5619 23.9869C6.17534 21.2573 4.87838 16.6883 6.32574 12.5866C7.7731 8.48448 11.6502 5.74144 16 5.74144C20.3497 5.74144 24.2269 8.48448 25.6742 12.5866C27.1216 16.6883 25.8246 21.2573 22.4381 23.9869C24.3209 24.6656 26.0153 25.783 27.3805 27.2467C33.5744 20.9789 33.5347 10.8826 27.2915 4.664C21.048 -1.55456 10.952 -1.55456 4.70846 4.664C-1.53474 10.8826 -1.57442 20.9789 4.6195 27.2467C5.98462 25.783 7.67902 24.6656 9.5619 23.9869Z" fill="#E56868"/>
<path fill-rule="evenodd" clip-rule="evenodd" d="M27.3504 4.7232C33.5383 10.9514 33.5514 21.0022 27.3805 27.2467C26.0154 25.783 24.321 24.6656 22.4381 23.9869C24.7002 22.1635 26.0832 19.4662 26.2432 16.5651C26.4032 13.664 25.3255 10.831 23.2775 8.7696L27.3504 4.7232Z" fill="#C8625D"/>
<path fill-rule="evenodd" clip-rule="evenodd" d="M9.56191 23.9869C9.26143 23.7446 8.97471 23.4858 8.70335 23.2109L4.61951 27.2467C5.98463 25.783 7.67903 24.6656 9.56191 23.9869Z" fill="#C8625D"/>
</svg>

<svg fill="none" viewBox="0 0 32 32"><path fill="#F7F6E2" fill-rule="evenodd" d="M32 16c0-8.828-7.172-16-16-16S0 7.172 0 16s7.172 16 16 16 16-7.172 16-16z" clip-rule="evenodd"/><path fill="#F7931A" fill-rule="evenodd" d="M24.732 16c0-4.818-3.914-8.732-8.732-8.732S7.268 11.182 7.268 16s3.914 8.732 8.732 8.732 8.732-3.914 8.732-8.732z" clip-rule="evenodd"/><path fill="#fff" fill-rule="evenodd" d="M19.85 14.756c.174-1.162-.71-1.786-1.92-2.205l.392-1.573-.958-.239-.382 1.533c-.252-.063-.51-.123-.768-.18l.384-1.543-.956-.24-.394 1.575-.167-.04c-.15-.034-.3-.069-.444-.104v-.006l-1.321-.33-.255 1.024c.036.008.711.163.696.173.388.097.459.354.447.557l-1.076 4.313c-.047.118-.168.294-.439.228.01.012-.553-.136-.675-.168l-.022-.006-.476 1.096.713.178.535.134c.136.033.27.068.402.103l.28.073-.396 1.592.958.238.392-1.575a33 33 0 00.764.198l-.391 1.568.958.239.397-1.59c1.633.31 2.862.186 3.38-1.293.416-1.19-.022-1.876-.881-2.324.626-.143 1.097-.556 1.223-1.406zm-2.189 3.07c-.272 1.09-1.977.641-2.76.435a14.017 14.017 0 00-.19-.05l.526-2.109c.066.017.147.035.238.055.809.182 2.463.553 2.186 1.668zm-2.026-2.65c.651.175 2.074.555 2.322-.437.253-1.016-1.129-1.322-1.804-1.471a8.51 8.51 0 01-.197-.046l-.477 1.914c.045.01.098.025.156.04z" clip-rule="evenodd"/><path fill="#E56868" fill-rule="evenodd" d="M9.562 23.987a10.258 10.258 0 1112.876 0 12.603 12.603 0 014.943 3.26c6.193-6.268 6.154-16.364-.09-22.583-6.243-6.219-16.339-6.219-22.583 0-6.243 6.219-6.282 16.315-.088 22.583a12.602 12.602 0 014.942-3.26z" clip-rule="evenodd"/><path fill="#C8625D" fill-rule="evenodd" d="M27.35 4.723c6.188 6.228 6.201 16.28.03 22.524a12.601 12.601 0 00-4.942-3.26 10.259 10.259 0 00.84-15.217l4.072-4.047zM9.562 23.987c-.3-.242-.587-.501-.859-.776L4.62 27.247a12.602 12.602 0 014.942-3.26z" clip-rule="evenodd"/></svg>
